!!!ONR: No. 50
!! From Harold Courlander, "Haiti Singing"
!! Chapel Hill: University of North Carolina Press, 1939
!! Copyright University of North Carolina Press
!!!ENC: D. Huron
**kern
*clefG2
*k[b-e-a-]
*M2/4
8a-
8cc
=1
4cc
8a-
8f
=
8f
8a-
8b-
8cc
=
8b-
8cc
8.a-
[16b-
=
4b-]
8cc
[8cc
=
8cc]
8a-
8f
(8e-
=
4.c)
8f
=
[2f
=
4f]
8a-
8cc
=
4cc
8a-
8f
=
8f
8a-
8b-
8cc
=
8b-
8cc
8.a-
[16b-
=
4b-]
8cc
[8cc
=
8cc]
8a-
8f
(8e-
=
4.c)
8f
=
2f
=
4a-
8a-
[8cc
=
8cc]
8f
4f
=
4a-
8f
[8e-
=
8e-]
8f
4f
=
4a-
8f
[8e-
=
8e-]
8f
4f
=
4a-
8a-
[8cc
=
8cc]
8ff
4ff
=
4a-
8f
[8e-
=
8e]
8f
4f
=
4a-
8a-
[8cc
=
8cc]
8f
[4f
=
2f]
==
*-
